X:744
T:Nether Cluny
R:Reel
B:The Athole Collection
M:C|
L:1/8
K:B_
d|~B2 dB FBDB|GFGB cBcd|B/B/B dB fBdB|egfe dBB:|
E|DE/F/ B,F BFdB|GFGB cBcd|Bfdf egdf|cBcd B/B/B BE|
DE/F/ B,F BFdB|GFGB cBcd|f/f/f ~gf bfdB|egfe dBB||

